assets/Raised back of hand/Dark/Flat/raised_back_of_hand_flat_dark.svg

<svg width="32" height="32" viewBox="0 0 32 32" fill="none" xmlns="http://www.w3.org/2000/svg">
<path d="M25.1562 7.26562C23.875 7.26562 23.2109 8.125 23.2109 8.125V6.20312C23.2109 5.16489 22.2101 4.23438 21.1719 4.23438C19.2188 4.23438 18.8906 5.39062 18.8906 5.39062C18.8906 5.39062 18.875 4.48438 18.7344 3.70312C18.5938 2.92188 17.6007 1.96875 16.5625 1.96875C14.6192 1.96875 13.8828 3.50781 14.0078 5.1875C14.0078 5.1875 13.3594 4.125 11.9531 4.125C10.9149 4.125 9.46094 5.10938 9.63281 7.02344L9.99219 14.5781C9.99219 14.5781 8.95545 13.0114 8.07804 12.5C7.20063 11.9886 5.88786 12.0115 5.17184 12.7812C4.33003 13.6861 4.17703 15.1042 4.78114 15.9688C6.59363 18.5625 9.16622 21.9511 9.65619 23.5312C10.9062 27.5625 14.5625 29.9821 17.9688 29.9821C22.0781 29.9821 26.3919 26.8841 26.7344 22.1094L27.4453 9.98438C27.5234 8.9375 26.7109 7.26562 25.1562 7.26562Z" fill="#573739"/>
<path d="M14.9797 4.67252C14.97 4.16039 14.9583 3.54618 15.088 3.00046C15.1665 2.67019 15.2863 2.42235 15.4463 2.26064C15.5118 2.19443 15.5912 2.1352 15.6917 2.09001C14.3982 2.48447 13.9036 3.78714 14.0078 5.18756C14.0078 5.18756 14.0016 5.17741 13.9891 5.15911L14.2973 12.8014C14.3084 13.0774 14.5411 13.292 14.817 13.2809C15.093 13.2698 15.3076 13.0371 15.2965 12.7612L14.9844 5.02107C14.9842 4.91233 14.982 4.79536 14.9797 4.67252Z" fill="#341A1C"/>
<path d="M16.1719 2.00006C16.1425 2.00006 16.1141 2.00079 16.0867 2.00222C16.1148 1.99809 16.1432 1.99434 16.1719 1.99097V2.00006Z" fill="#341A1C"/>
<path d="M18.8902 5.3695C18.8597 5.55531 18.8444 5.74233 18.8438 5.92602L18.563 12.2435C18.5507 12.5194 18.7644 12.7529 19.0403 12.7652C19.3162 12.7775 19.5498 12.5638 19.562 12.2879L19.8438 5.94867V5.93756C19.8438 5.47395 19.974 5.01162 20.2044 4.67982C20.3368 4.48923 20.498 4.34513 20.6908 4.25998C19.1633 4.42995 18.8906 5.39069 18.8906 5.39069L18.8902 5.3695Z" fill="#341A1C"/>
<path d="M23.2628 8.06491C23.1412 8.48903 23.061 8.9973 23.0318 9.60094L23.0317 9.60415L22.8598 13.7135C22.8483 13.9894 23.0626 14.2224 23.3385 14.234C23.6144 14.2455 23.8474 14.0312 23.8589 13.7553L24.0308 9.64758C24.0831 8.56683 24.3107 7.96243 24.537 7.64192C24.7526 7.33647 24.9686 7.2813 25.0938 7.2813V7.26636C24.0573 7.28913 23.4383 7.87343 23.2628 8.06491Z" fill="#341A1C"/>
<path d="M10.5571 16.5626C10.3772 16.5661 10.2015 16.4721 10.1088 16.3035C9.61261 15.4014 8.45401 13.3139 7.84583 12.3815C7.92596 12.4171 8.00359 12.4566 8.07807 12.5001C8.95419 13.0107 9.98916 14.5736 9.99222 14.5782L9.63284 7.02351C9.49487 5.48702 10.4046 4.54961 11.3059 4.23956C11.109 4.36388 10.9571 4.55567 10.8397 4.81303C10.6243 5.28525 10.5406 5.96098 10.5926 6.74838L10.5931 6.7561L11.0618 16.0374C11.0757 16.3131 10.8635 16.548 10.5877 16.5619C10.5774 16.5625 10.5672 16.5627 10.5571 16.5626Z" fill="#341A1C"/>
</svg>

<svg xmlns="http://www.w3.org/2000/svg" width="32" height="32" fill="none"><path fill="#573739" d="M25.156 7.266c-1.281 0-1.945.859-1.945.859V6.203c0-1.038-1-1.969-2.04-1.969-1.952 0-2.28 1.157-2.28 1.157s-.016-.907-.157-1.688c-.14-.781-1.133-1.734-2.172-1.734-1.943 0-2.68 1.539-2.554 3.218 0 0-.649-1.062-2.055-1.062-1.038 0-2.492.984-2.32 2.898l.36 7.555S8.954 13.011 8.077 12.5c-.877-.511-2.19-.489-2.906.281-.842.905-.995 2.323-.39 3.188 1.812 2.594 4.384 5.982 4.874 7.562 1.25 4.032 4.906 6.451 8.313 6.451 4.11 0 8.423-3.098 8.765-7.873l.711-12.125c.078-1.046-.734-2.718-2.289-2.718Z"/><path fill="#341A1C" d="M14.98 4.673c-.01-.513-.022-1.127.108-1.673.079-.33.198-.578.358-.74a.805.805 0 0 1 .246-.17c-1.294.394-1.788 1.697-1.684 3.098l-.019-.029.308 7.642a.5.5 0 1 0 1-.04l-.313-7.74c0-.109-.002-.226-.004-.348ZM16.172 2c-.03 0-.058 0-.085.002a2.96 2.96 0 0 1 .085-.011v.01ZM18.89 5.37c-.03.185-.046.372-.046.556l-.281 6.317a.5.5 0 1 0 .999.045l.282-6.34v-.01c0-.464.13-.926.36-1.258.133-.19.294-.335.487-.42-1.528.17-1.8 1.13-1.8 1.13v-.02ZM23.263 8.065a6.791 6.791 0 0 0-.231 1.536v.003l-.172 4.11a.5.5 0 0 0 .999.041l.172-4.107c.052-1.081.28-1.686.506-2.006.216-.306.432-.36.557-.36v-.016a2.578 2.578 0 0 0-1.831.799ZM10.557 16.563a.5.5 0 0 1-.448-.26c-.496-.902-1.655-2.99-2.263-3.921.08.035.158.075.232.118.876.51 1.911 2.074 1.914 2.078l-.36-7.554c-.137-1.537.773-2.474 1.674-2.784-.197.124-.349.316-.466.573-.216.472-.3 1.148-.247 1.935v.008l.469 9.281a.5.5 0 0 1-.505.526Z"/></svg>
